dist/img/offices/floor-txt1.svg

<svg width="1073" height="165" viewBox="0 0 1073 165" fill="none" xmlns="http://www.w3.org/2000/svg">
<rect x="475" width="598" height="125" fill="#C01818" fill-opacity="0.8"/>
<rect x="299" width="176" height="147" fill="#C01818" fill-opacity="0.8"/>
<rect width="299" height="165" fill="#C01818" fill-opacity="0.8"/>
<path d="M435.219 74H430.391V60.7812L430.438 58.6094L430.516 56.2344C429.714 57.0365 429.156 57.5625 428.844 57.8125L426.219 59.9219L423.891 57.0156L431.25 51.1562H435.219V74ZM456.234 74H451.469V51.1562H464.562V55.125H456.234V61.0156H463.984V64.9688H456.234V74ZM473.422 74H468.656V49.6875H473.422V74ZM482.234 65.2344C482.234 66.9635 482.516 68.2708 483.078 69.1562C483.651 70.0417 484.578 70.4844 485.859 70.4844C487.13 70.4844 488.042 70.0469 488.594 69.1719C489.156 68.2865 489.438 66.974 489.438 65.2344C489.438 63.5052 489.156 62.2083 488.594 61.3438C488.031 60.4792 487.109 60.0469 485.828 60.0469C484.557 60.0469 483.641 60.4792 483.078 61.3438C482.516 62.1979 482.234 63.4948 482.234 65.2344ZM494.312 65.2344C494.312 68.0781 493.562 70.3021 492.062 71.9062C490.562 73.5104 488.474 74.3125 485.797 74.3125C484.12 74.3125 482.641 73.9479 481.359 73.2188C480.078 72.4792 479.094 71.4219 478.406 70.0469C477.719 68.6719 477.375 67.0677 477.375 65.2344C477.375 62.3802 478.12 60.1615 479.609 58.5781C481.099 56.9948 483.193 56.2031 485.891 56.2031C487.568 56.2031 489.047 56.5677 490.328 57.2969C491.609 58.026 492.594 59.0729 493.281 60.4375C493.969 61.8021 494.312 63.401 494.312 65.2344ZM502.047 65.2344C502.047 66.9635 502.328 68.2708 502.891 69.1562C503.464 70.0417 504.391 70.4844 505.672 70.4844C506.943 70.4844 507.854 70.0469 508.406 69.1719C508.969 68.2865 509.25 66.974 509.25 65.2344C509.25 63.5052 508.969 62.2083 508.406 61.3438C507.844 60.4792 506.922 60.0469 505.641 60.0469C504.37 60.0469 503.453 60.4792 502.891 61.3438C502.328 62.1979 502.047 63.4948 502.047 65.2344ZM514.125 65.2344C514.125 68.0781 513.375 70.3021 511.875 71.9062C510.375 73.5104 508.286 74.3125 505.609 74.3125C503.932 74.3125 502.453 73.9479 501.172 73.2188C499.891 72.4792 498.906 71.4219 498.219 70.0469C497.531 68.6719 497.188 67.0677 497.188 65.2344C497.188 62.3802 497.932 60.1615 499.422 58.5781C500.911 56.9948 503.005 56.2031 505.703 56.2031C507.38 56.2031 508.859 56.5677 510.141 57.2969C511.422 58.026 512.406 59.0729 513.094 60.4375C513.781 61.8021 514.125 63.401 514.125 65.2344ZM527.812 56.2031C528.458 56.2031 528.995 56.25 529.422 56.3438L529.062 60.8125C528.677 60.7083 528.208 60.6562 527.656 60.6562C526.135 60.6562 524.948 61.0469 524.094 61.8281C523.25 62.6094 522.828 63.7031 522.828 65.1094V74H518.062V56.5312H521.672L522.375 59.4688H522.609C523.151 58.4896 523.88 57.7031 524.797 57.1094C525.724 56.5052 526.729 56.2031 527.812 56.2031ZM539.359 67.375V63.4688H547.75V67.375H539.359ZM573.391 67.6562C573.391 69.7188 572.646 71.3438 571.156 72.5312C569.677 73.7188 567.615 74.3125 564.969 74.3125C562.531 74.3125 560.375 73.8542 558.5 72.9375V68.4375C560.042 69.125 561.344 69.6094 562.406 69.8906C563.479 70.1719 564.458 70.3125 565.344 70.3125C566.406 70.3125 567.219 70.1094 567.781 69.7031C568.354 69.2969 568.641 68.6927 568.641 67.8906C568.641 67.4427 568.516 67.0469 568.266 66.7031C568.016 66.349 567.646 66.0104 567.156 65.6875C566.677 65.3646 565.693 64.849 564.203 64.1406C562.807 63.4844 561.76 62.8542 561.062 62.25C560.365 61.6458 559.807 60.9427 559.391 60.1406C558.974 59.3385 558.766 58.401 558.766 57.3281C558.766 55.3073 559.448 53.7188 560.812 52.5625C562.188 51.4062 564.083 50.8281 566.5 50.8281C567.688 50.8281 568.818 50.9688 569.891 51.25C570.974 51.5312 572.104 51.9271 573.281 52.4375L571.719 56.2031C570.5 55.7031 569.49 55.3542 568.688 55.1562C567.896 54.9583 567.115 54.8594 566.344 54.8594C565.427 54.8594 564.724 55.0729 564.234 55.5C563.745 55.9271 563.5 56.4844 563.5 57.1719C563.5 57.599 563.599 57.974 563.797 58.2969C563.995 58.6094 564.307 58.9167 564.734 59.2188C565.172 59.5104 566.198 60.0417 567.812 60.8125C569.948 61.8333 571.411 62.8594 572.203 63.8906C572.995 64.9115 573.391 66.1667 573.391 67.6562ZM593.281 74H588.516V63.7969C588.516 61.276 587.578 60.0156 585.703 60.0156C584.37 60.0156 583.406 60.4688 582.812 61.375C582.219 62.2812 581.922 63.75 581.922 65.7812V74H577.156V49.6875H581.922V54.6406C581.922 55.026 581.885 55.9323 581.812 57.3594L581.703 58.7656H581.953C583.016 57.0573 584.703 56.2031 587.016 56.2031C589.068 56.2031 590.625 56.7552 591.688 57.8594C592.75 58.9635 593.281 60.5469 593.281 62.6094V74ZM601.984 65.2344C601.984 66.9635 602.266 68.2708 602.828 69.1562C603.401 70.0417 604.328 70.4844 605.609 70.4844C606.88 70.4844 607.792 70.0469 608.344 69.1719C608.906 68.2865 609.188 66.974 609.188 65.2344C609.188 63.5052 608.906 62.2083 608.344 61.3438C607.781 60.4792 606.859 60.0469 605.578 60.0469C604.307 60.0469 603.391 60.4792 602.828 61.3438C602.266 62.1979 601.984 63.4948 601.984 65.2344ZM614.062 65.2344C614.062 68.0781 613.312 70.3021 611.812 71.9062C610.312 73.5104 608.224 74.3125 605.547 74.3125C603.87 74.3125 602.391 73.9479 601.109 73.2188C599.828 72.4792 598.844 71.4219 598.156 70.0469C597.469 68.6719 597.125 67.0677 597.125 65.2344C597.125 62.3802 597.87 60.1615 599.359 58.5781C600.849 56.9948 602.943 56.2031 605.641 56.2031C607.318 56.2031 608.797 56.5677 610.078 57.2969C611.359 58.026 612.344 59.0729 613.031 60.4375C613.719 61.8021 614.062 63.401 614.062 65.2344ZM627.594 74.3125C625.542 74.3125 623.932 73.5677 622.766 72.0781H622.516C622.682 73.5365 622.766 74.3802 622.766 74.6094V81.6875H618V56.5312H621.875L622.547 58.7969H622.766C623.88 57.0677 625.531 56.2031 627.719 56.2031C629.781 56.2031 631.396 57 632.562 58.5938C633.729 60.1875 634.312 62.401 634.312 65.2344C634.312 67.099 634.036 68.7188 633.484 70.0938C632.943 71.4688 632.167 72.5156 631.156 73.2344C630.146 73.9531 628.958 74.3125 627.594 74.3125ZM626.188 60.0156C625.01 60.0156 624.151 60.3802 623.609 61.1094C623.068 61.8281 622.786 63.0208 622.766 64.6875V65.2031C622.766 67.0781 623.042 68.4219 623.594 69.2344C624.156 70.0469 625.042 70.4531 626.25 70.4531C628.385 70.4531 629.453 68.6927 629.453 65.1719C629.453 63.4531 629.188 62.1667 628.656 61.3125C628.135 60.4479 627.312 60.0156 626.188 60.0156ZM650.438 68.8125C650.438 70.6042 649.812 71.9688 648.562 72.9062C647.323 73.8438 645.464 74.3125 642.984 74.3125C641.714 74.3125 640.63 74.224 639.734 74.0469C638.839 73.8802 638 73.6302 637.219 73.2969V69.3594C638.104 69.776 639.099 70.125 640.203 70.4062C641.318 70.6875 642.297 70.8281 643.141 70.8281C644.87 70.8281 645.734 70.3281 645.734 69.3281C645.734 68.9531 645.62 68.651 645.391 68.4219C645.161 68.1823 644.766 67.9167 644.203 67.625C643.641 67.3229 642.891 66.974 641.953 66.5781C640.609 66.0156 639.62 65.4948 638.984 65.0156C638.359 64.5365 637.901 63.9896 637.609 63.375C637.328 62.75 637.188 61.9844 637.188 61.0781C637.188 59.526 637.786 58.3281 638.984 57.4844C640.193 56.6302 641.901 56.2031 644.109 56.2031C646.214 56.2031 648.26 56.6615 650.25 57.5781L648.812 61.0156C647.938 60.6406 647.12 60.3333 646.359 60.0938C645.599 59.8542 644.823 59.7344 644.031 59.7344C642.625 59.7344 641.922 60.1146 641.922 60.875C641.922 61.3021 642.146 61.6719 642.594 61.9844C643.052 62.2969 644.047 62.7604 645.578 63.375C646.943 63.9271 647.943 64.4427 648.578 64.9219C649.214 65.401 649.682 65.9531 649.984 66.5781C650.286 67.2031 650.438 67.9479 650.438 68.8125Z" fill="white"/>
</svg>

<svg width="1073" height="165" fill="none" xmlns="http://www.w3.org/2000/svg"><path fill="#C01818" fill-opacity=".8" d="M475 0h598v125H475zM299 0h176v147H299zM0 0h299v165H0z"/><path d="M435.219 74h-4.828V60.781l.047-2.172.078-2.375c-.802.802-1.36 1.328-1.672 1.578l-2.625 2.11-2.328-2.906 7.359-5.86h3.969V74zm21.015 0h-4.765V51.156h13.093v3.969h-8.328v5.89h7.75v3.954h-7.75V74zm17.188 0h-4.766V49.687h4.766V74zm8.812-8.766c0 1.73.282 3.037.844 3.922.573.886 1.5 1.328 2.781 1.328 1.271 0 2.183-.437 2.735-1.312.562-.885.844-2.198.844-3.938 0-1.729-.282-3.026-.844-3.89-.563-.865-1.485-1.297-2.766-1.297-1.271 0-2.187.432-2.75 1.297-.562.854-.844 2.15-.844 3.89zm12.078 0c0 2.844-.75 5.068-2.25 6.672s-3.588 2.406-6.265 2.406c-1.677 0-3.156-.364-4.438-1.093-1.281-.74-2.265-1.797-2.953-3.172-.687-1.375-1.031-2.98-1.031-4.813 0-2.854.745-5.072 2.234-6.656 1.49-1.583 3.584-2.375 6.282-2.375 1.677 0 3.156.365 4.437 1.094 1.281.729 2.266 1.776 2.953 3.14.688 1.365 1.031 2.964 1.031 4.797zm7.735 0c0 1.73.281 3.037.844 3.922.573.886 1.5 1.328 2.781 1.328 1.271 0 2.182-.437 2.734-1.312.563-.885.844-2.198.844-3.938 0-1.729-.281-3.026-.844-3.89-.562-.865-1.484-1.297-2.765-1.297-1.271 0-2.188.432-2.75 1.297-.563.854-.844 2.15-.844 3.89zm12.078 0c0 2.844-.75 5.068-2.25 6.672s-3.589 2.406-6.266 2.406c-1.677 0-3.156-.364-4.437-1.093-1.281-.74-2.266-1.797-2.953-3.172-.688-1.375-1.031-2.98-1.031-4.813 0-2.854.744-5.072 2.234-6.656 1.489-1.583 3.583-2.375 6.281-2.375 1.677 0 3.156.365 4.438 1.094 1.281.729 2.265 1.776 2.953 3.14.687 1.365 1.031 2.964 1.031 4.797zm13.687-9.03c.646 0 1.183.046 1.61.14l-.36 4.468c-.385-.104-.854-.156-1.406-.156-1.521 0-2.708.39-3.562 1.172-.844.781-1.266 1.875-1.266 3.281V74h-4.766V56.531h3.61l.703 2.938h.234a6.526 6.526 0 012.188-2.36 5.415 5.415 0 013.015-.906zm11.547 11.171v-3.906h8.391v3.906h-8.391zm34.032.281c0 2.063-.745 3.688-2.235 4.875-1.479 1.188-3.541 1.781-6.187 1.781-2.438 0-4.594-.458-6.469-1.374v-4.5c1.542.687 2.844 1.171 3.906 1.453 1.073.28 2.052.421 2.938.421 1.062 0 1.875-.203 2.437-.609.573-.406.86-1.01.86-1.812 0-.448-.125-.844-.375-1.188-.25-.354-.62-.693-1.11-1.016-.479-.322-1.463-.838-2.953-1.546-1.396-.657-2.443-1.287-3.141-1.891a7.099 7.099 0 01-1.671-2.11c-.417-.801-.625-1.739-.625-2.812 0-2.02.682-3.61 2.046-4.766 1.376-1.156 3.271-1.734 5.688-1.734 1.188 0 2.318.14 3.391.422 1.083.281 2.213.677 3.39 1.188l-1.562 3.765c-1.219-.5-2.229-.849-3.031-1.047a9.641 9.641 0 00-2.344-.297c-.917 0-1.62.214-2.11.641-.489.427-.734.984-.734 1.672 0 .427.099.802.297 1.125.198.312.51.62.937.922.438.291 1.464.823 3.078 1.593 2.136 1.021 3.599 2.047 4.391 3.079.792 1.02 1.188 2.276 1.188 3.765zM593.281 74h-4.765V63.797c0-2.521-.938-3.781-2.813-3.781-1.333 0-2.297.453-2.891 1.359-.593.906-.89 2.375-.89 4.406V74h-4.766V49.687h4.766v4.954c0 .385-.037 1.291-.11 2.718l-.109 1.407h.25c1.063-1.709 2.75-2.563 5.063-2.563 2.052 0 3.609.552 4.672 1.656 1.062 1.105 1.593 2.688 1.593 4.75V74zm8.703-8.766c0 1.73.282 3.037.844 3.922.573.886 1.5 1.328 2.781 1.328 1.271 0 2.183-.437 2.735-1.312.562-.885.844-2.198.844-3.938 0-1.729-.282-3.026-.844-3.89-.563-.865-1.485-1.297-2.766-1.297-1.271 0-2.187.432-2.75 1.297-.562.854-.844 2.15-.844 3.89zm12.078 0c0 2.844-.75 5.068-2.25 6.672s-3.588 2.406-6.265 2.406c-1.677 0-3.156-.364-4.438-1.093-1.281-.74-2.265-1.797-2.953-3.172-.687-1.375-1.031-2.98-1.031-4.813 0-2.854.745-5.072 2.234-6.656 1.49-1.583 3.584-2.375 6.282-2.375 1.677 0 3.156.365 4.437 1.094 1.281.729 2.266 1.776 2.953 3.14.688 1.365 1.031 2.964 1.031 4.797zm13.532 9.079c-2.052 0-3.662-.745-4.828-2.235h-.25c.166 1.459.25 2.302.25 2.531v7.079H618V56.53h3.875l.672 2.266h.219c1.114-1.73 2.765-2.594 4.953-2.594 2.062 0 3.677.797 4.843 2.39 1.167 1.594 1.75 3.808 1.75 6.641 0 1.865-.276 3.485-.828 4.86-.541 1.375-1.317 2.422-2.328 3.14-1.01.72-2.198 1.079-3.562 1.079zm-1.406-14.297c-1.178 0-2.037.364-2.579 1.093-.541.72-.823 1.912-.843 3.578v.516c0 1.875.276 3.219.828 4.031.562.813 1.448 1.22 2.656 1.22 2.135 0 3.203-1.761 3.203-5.282 0-1.719-.265-3.005-.797-3.86-.521-.864-1.344-1.296-2.468-1.296zm24.25 8.797c0 1.791-.626 3.156-1.876 4.093-1.239.938-3.098 1.406-5.578 1.406-1.27 0-2.354-.088-3.25-.265a11.976 11.976 0 01-2.515-.75v-3.938c.885.417 1.88.766 2.984 1.047 1.115.281 2.094.422 2.938.422 1.729 0 2.593-.5 2.593-1.5 0-.375-.114-.677-.343-.906-.23-.24-.625-.505-1.188-.797a27.547 27.547 0 00-2.25-1.047c-1.344-.562-2.333-1.083-2.969-1.562-.625-.48-1.083-1.026-1.375-1.641-.281-.625-.421-1.39-.421-2.297 0-1.552.598-2.75 1.796-3.594 1.209-.854 2.917-1.28 5.125-1.28 2.105 0 4.151.457 6.141 1.374l-1.438 3.438a26.249 26.249 0 00-2.453-.922 7.698 7.698 0 00-2.328-.36c-1.406 0-2.109.38-2.109 1.141 0 .427.224.797.672 1.11.458.312 1.453.775 2.984 1.39 1.365.552 2.365 1.068 3 1.547.636.479 1.104 1.031 1.406 1.656.302.625.454 1.37.454 2.234z" fill="#fff"/></svg>
